X:1
T:John of Dreams
M:3/2
L:1/4
K:D
 z f e d| A FD/2-F/2 A|
M:3/2
 B3/2 A/2 A4| z f e d A F|D/2-F/2 A
M:3/2
| B3/2 A/2 A4| z a g f f2| e2 z g f e| e2 d2 z f| e d A FB/2-F/2 A|\
